src/platform/packages/shared/home/sample_data_card/src/mocks/icon.svg

<svg width="34" height="32" viewBox="0 0 34 32" fill="none" xmlns="http://www.w3.org/2000/svg">
<path fill-rule="evenodd" clip-rule="evenodd" d="M2.00024 22C2.47508 22.2862 3.49851 22.5776 4.42785 22.8421L4.64995 22.9054C7.06615 23.5957 10.4115 24 14 24C14.7424 24 15.4744 23.9827 16.1899 23.9491C16.3251 24.6338 16.5303 25.2934 16.7976 25.9201C15.8936 25.9725 14.9581 26 14 26C6.26801 26 0 24.2091 0 22V4C0 1.79086 6.26801 0 14 0C21.732 0 28 1.79086 28 4V12.2C27.3538 12.0689 26.6849 12 26 12C24.0582 12 22.2456 12.5535 20.7115 13.5113C18.7188 13.8229 16.4318 14 14 14C8.90735 14 4.44979 13.2231 2 12.0615V16C2.47483 16.2862 3.49851 16.5776 4.42785 16.8421L4.64995 16.9054C7.06615 17.5957 10.4115 18 14 18C14.9798 18 15.9415 17.9699 16.871 17.912C16.5813 18.558 16.3581 19.2404 16.2102 19.9504C15.4903 19.9831 14.7521 20 14 20C8.90735 20 4.44979 19.2231 2 18.0615L2.00024 22ZM2 6.06148V10C2.47483 10.2862 3.49853 10.5776 4.42787 10.8421L4.64995 10.9054C7.06615 11.5957 10.4115 12 14 12C17.5885 12 20.9338 11.5957 23.3501 10.9054L23.5863 10.8381C24.5124 10.5746 25.5311 10.2848 26.0035 10H26V6.06148C23.5502 7.2231 19.0927 8 14 8C8.90735 8 4.44979 7.2231 2 6.06148ZM23.3501 3.09462C20.9338 2.40428 17.5885 2 14 2C10.4115 2 7.06615 2.40428 4.64995 3.09462C3.6667 3.37555 2.89023 3.69073 2.37721 4C2.89023 4.30927 3.6667 4.62445 4.64995 4.90538C7.06615 5.59572 10.4115 6 14 6C17.5885 6 20.9338 5.59572 23.3501 4.90538C24.3333 4.62445 25.1098 4.30927 25.6228 4C25.1098 3.69073 24.3333 3.37555 23.3501 3.09462Z" fill="#343741"/>
<path d="M22 28.5C22 27.675 22.675 27 23.5 27C24.325 27 25 27.675 25 28.5C25 29.325 24.325 30 23.5 30C22.675 30 22 29.325 22 28.5Z" fill="#343741"/>
<path d="M19 16.5V15H21.475L22.15 16.5H33.25C33.7 16.5 34 16.8 34 17.25C34 17.4 34 17.475 33.85 17.625L31.15 22.5C30.925 22.95 30.475 23.25 29.875 23.25H24.325L23.65 24.525V24.6C23.65 24.675 23.725 24.75 23.8 24.75H32.5V26.25H23.5C22.675 26.25 22 25.575 22 24.75C22 24.525 22.075 24.225 22.15 24L23.2 22.2L20.5 16.5H19Z" fill="#343741"/>
<path d="M29.5 28.5C29.5 27.675 30.175 27 31 27C31.825 27 32.5 27.675 32.5 28.5C32.5 29.325 31.825 30 31 30C30.175 30 29.5 29.325 29.5 28.5Z" fill="#343741"/>
</svg>

<svg xmlns="http://www.w3.org/2000/svg" width="34" height="32" fill="none"><path fill="#343741" fill-rule="evenodd" d="M2 22c.475.286 1.499.578 2.428.842l.222.063C7.066 23.595 10.412 24 14 24q1.114 0 2.19-.05a10 10 0 0 0 .608 1.97c-.904.052-1.84.08-2.798.08-7.732 0-14-1.79-14-4V4c0-2.21 6.268-4 14-4s14 1.79 14 4v8.2q-.97-.198-2-.2a9.95 9.95 0 0 0-5.288 1.511c-1.993.312-4.28.489-6.712.489-5.093 0-9.55-.777-12-1.938V16c.475.286 1.499.578 2.428.842l.222.063C7.066 17.595 10.412 18 14 18c.98 0 1.941-.03 2.871-.088a10 10 0 0 0-.66 2.038Q15.128 20 14 20c-5.093 0-9.55-.777-12-1.939zM2 6.061V10c.475.286 1.499.578 2.428.842l.222.063C7.066 11.595 10.412 12 14 12s6.934-.404 9.35-1.095l.236-.067c.926-.263 1.945-.553 2.418-.838H26V6.061C23.55 7.223 19.093 8 14 8S4.45 7.223 2 6.061m21.35-2.966C20.934 2.405 17.588 2 14 2s-6.934.404-9.35 1.095c-.983.28-1.76.596-2.273.905.513.31 1.29.624 2.273.905C7.066 5.595 10.412 6 14 6s6.934-.404 9.35-1.095c.983-.28 1.76-.596 2.273-.905-.513-.31-1.29-.624-2.273-.905" clip-rule="evenodd"/><path fill="#343741" d="M22 28.5c0-.825.675-1.5 1.5-1.5s1.5.675 1.5 1.5-.675 1.5-1.5 1.5-1.5-.675-1.5-1.5M19 16.5V15h2.475l.675 1.5h11.1c.45 0 .75.3.75.75 0 .15 0 .225-.15.375l-2.7 4.875c-.225.45-.675.75-1.275.75h-5.55l-.675 1.275v.075c0 .075.075.15.15.15h8.7v1.5h-9c-.825 0-1.5-.675-1.5-1.5 0-.225.075-.525.15-.75l1.05-1.8-2.7-5.7zM29.5 28.5c0-.825.675-1.5 1.5-1.5s1.5.675 1.5 1.5S31.825 30 31 30s-1.5-.675-1.5-1.5"/></svg>
